app/images/icons/favicon.svg

<svg width="32" height="32" viewBox="0 0 32 32" fill="none" xmlns="http://www.w3.org/2000/svg">
<rect width="32" height="32" fill="#060709"/>
<g filter="url(#filter0_i_478_1712)">
<path d="M5.26304 7H24.8763C26.9165 7 28.472 7.76048 29.543 9.28145C29.9488 10.0842 30.0844 10.8447 29.9496 11.5629L29.3582 14.7158C29.071 16.2473 27.9241 17.5412 25.9177 18.5974C24.7948 19.0833 23.7292 19.3262 22.7207 19.3262H8.82797L7.96614 23.9208C7.95623 23.9736 7.9223 24 7.86434 24H2.07425C2.01629 24 1.99226 23.9736 2.00217 23.9208L5.16124 7.07922C5.18274 7.02641 5.21667 7 5.26304 7ZM10.3822 11.0401L9.5858 15.2861H20.9052C22.1107 15.2861 22.9659 14.8055 23.4708 13.8444C23.5588 13.6226 23.6225 13.406 23.6622 13.1948C23.8544 12.1702 23.5127 11.489 22.6371 11.151C22.3612 11.077 22.0726 11.0401 21.7712 11.0401H10.3822Z" fill="#05C8FE"/>
</g>
<path d="M8.82797 18.8262H8.41304L8.33654 19.234L7.53635 23.5H2.58982L5.59103 7.5H24.8763C26.7584 7.5 28.1467 8.18565 29.113 9.53951C29.4677 10.2542 29.5667 10.8922 29.4582 11.4707L28.8668 14.6236C28.6195 15.9422 27.6258 17.1293 25.7016 18.146C24.6351 18.6053 23.643 18.8262 22.7207 18.8262H8.82797ZM10.3822 10.5401H9.96732L9.89082 10.9479L9.09437 15.1939L8.98329 15.7861H9.5858H20.9052C21.5743 15.7861 22.178 15.6525 22.6957 15.3616C23.2163 15.069 23.6211 14.6335 23.9134 14.0769L23.9258 14.0534L23.9356 14.0287C24.0341 13.7803 24.1075 13.5329 24.1536 13.287L23.6622 13.1948L24.1536 13.287C24.2625 12.7062 24.2321 12.16 23.997 11.6913C23.7582 11.2152 23.3429 10.8875 22.8172 10.6845L22.7923 10.6749L22.7666 10.668C22.4462 10.5822 22.1139 10.5401 21.7712 10.5401H10.3822Z" stroke="#05C8FE"/>
<defs>
<filter id="filter0_i_478_1712" x="2" y="7" width="28" height="17" filterUnits="userSpaceOnUse" color-interpolation-filters="sRGB">
<feFlood flood-opacity="0" result="BackgroundImageFix"/>
<feBlend mode="normal" in="SourceGraphic" in2="BackgroundImageFix" result="shape"/>
<feColorMatrix in="SourceAlpha" type="matrix" values="0 0 0 0 0 0 0 0 0 0 0 0 0 0 0 0 0 0 127 0" result="hardAlpha"/>
<feOffset/>
<feGaussianBlur stdDeviation="7"/>
<feComposite in2="hardAlpha" operator="arithmetic" k2="-1" k3="1"/>
<feColorMatrix type="matrix" values="0 0 0 0 0 0 0 0 0 0.16 0 0 0 0 1 0 0 0 1 0"/>
<feBlend mode="normal" in2="shape" result="effect1_innerShadow_478_1712"/>
</filter>
</defs>
</svg>

<svg width="32" height="32" fill="none" xmlns="http://www.w3.org/2000/svg"><path fill="#060709" d="M0 0h32v32H0z"/><g filter="url(#filter0_i_478_1712)"><path d="M5.263 7h19.613c2.04 0 3.596.76 4.667 2.281.406.803.541 1.564.407 2.282l-.592 3.153c-.287 1.531-1.434 2.825-3.44 3.881-1.123.486-2.189.73-3.197.73H8.828l-.862 4.594c-.01.053-.044.079-.102.079h-5.79c-.058 0-.082-.026-.072-.08l3.16-16.84c.02-.054.055-.08.101-.08zm5.12 4.04l-.797 4.246h11.32c1.205 0 2.06-.48 2.565-1.442.088-.221.151-.438.191-.65.192-1.024-.15-1.705-1.025-2.043a3.328 3.328 0 00-.866-.11H10.382z" fill="#05C8FE"/></g><path d="M8.828 18.826h-.415l-.076.408-.8 4.266H2.59l3.001-16h19.285c1.882 0 3.27.686 4.237 2.04.355.714.454 1.352.345 1.93l-.591 3.154c-.248 1.318-1.241 2.505-3.165 3.522-1.067.46-2.059.68-2.981.68H8.828zm1.554-8.286h-.415l-.076.408-.797 4.246-.11.592h11.922c.668 0 1.272-.133 1.79-.424.52-.293.925-.729 1.217-1.285l.013-.024.01-.024c.098-.249.172-.496.218-.742l-.492-.092.492.092c.108-.58.078-1.127-.157-1.596-.239-.476-.654-.804-1.18-1.007l-.025-.01-.025-.006a3.834 3.834 0 00-.996-.128H10.382z" stroke="#05C8FE"/><defs><filter id="filter0_i_478_1712" x="2" y="7" width="28" height="17" filterUnits="userSpaceOnUse" color-interpolation-filters="sRGB"><feFlood flood-opacity="0" result="BackgroundImageFix"/><feBlend in="SourceGraphic" in2="BackgroundImageFix" result="shape"/><feColorMatrix in="SourceAlpha" values="0 0 0 0 0 0 0 0 0 0 0 0 0 0 0 0 0 0 127 0" result="hardAlpha"/><feOffset/><feGaussianBlur stdDeviation="7"/><feComposite in2="hardAlpha" operator="arithmetic" k2="-1" k3="1"/><feColorMatrix values="0 0 0 0 0 0 0 0 0 0.16 0 0 0 0 1 0 0 0 1 0"/><feBlend in2="shape" result="effect1_innerShadow_478_1712"/></filter></defs></svg>
